x-pack/platform/plugins/shared/content_connectors/public/assets/icons/teams.svg

<svg width="64" height="64" viewBox="0 0 64 64" fill="none" xmlns="http://www.w3.org/2000/svg">
<g clip-path="url(#clip0_720_81309)">
<path d="M44.6407 24.2456H61.1721C62.7339 24.2456 64 25.5117 64 27.0735V42.1314C64 47.8714 59.3468 52.5247 53.6067 52.5247H53.5576C47.8175 52.5255 43.1636 47.8729 43.1628 42.1328C43.1628 42.1323 43.1628 42.1319 43.1628 42.1313V25.7236C43.1628 24.9073 43.8245 24.2456 44.6407 24.2456Z" fill="#5059C9"/>
<path d="M55.8139 21.2688C59.513 21.2688 62.5116 18.2702 62.5116 14.5712C62.5116 10.8722 59.513 7.8735 55.8139 7.8735C52.1149 7.8735 49.1163 10.8722 49.1163 14.5712C49.1163 18.2702 52.1149 21.2688 55.8139 21.2688Z" fill="#5059C9"/>
<path d="M34.9767 21.2689C40.3198 21.2689 44.6512 16.9375 44.6512 11.5944C44.6512 6.2514 40.3198 1.92001 34.9767 1.92001C29.6337 1.92001 25.3023 6.2514 25.3023 11.5944C25.3023 16.9375 29.6337 21.2689 34.9767 21.2689Z" fill="#7B83EB"/>
<path d="M47.8765 24.2456H20.5886C19.0454 24.2838 17.8247 25.5645 17.8605 27.1078V44.2821C17.645 53.5431 24.9718 61.2283 34.2326 61.4549C43.4933 61.2283 50.8202 53.5431 50.6047 44.2821V27.1078C50.6404 25.5645 49.4197 24.2838 47.8765 24.2456Z" fill="#7B83EB"/>
<path opacity="0.1" d="M35.7209 24.2456V48.3126C35.7135 49.4162 35.0447 50.4077 34.0242 50.8279C33.6993 50.9654 33.35 51.0362 32.9972 51.0363H19.1702C18.9768 50.5451 18.7982 50.054 18.6493 49.5479C18.1283 47.8401 17.8625 46.0647 17.8604 44.2791V27.1033C17.8247 25.5625 19.0434 24.2838 20.5842 24.2456H35.7209Z" fill="black"/>
<path opacity="0.2" d="M34.2327 24.2456V49.8009C34.2326 50.1538 34.1618 50.503 34.0243 50.8279C33.6041 51.8485 32.6126 52.5173 31.509 52.5247H19.8698C19.6168 52.0335 19.3786 51.5423 19.1702 51.0363C18.9619 50.5303 18.7982 50.054 18.6493 49.5479C18.1283 47.8401 17.8625 46.0647 17.8604 44.2791V27.1033C17.8247 25.5625 19.0434 24.2838 20.5842 24.2456H34.2327Z" fill="black"/>
<path opacity="0.2" d="M34.2327 24.2456V46.8242C34.2214 48.3238 33.0085 49.5366 31.509 49.5479H18.6493C18.1283 47.8401 17.8625 46.0647 17.8605 44.2791V27.1033C17.8247 25.5625 19.0435 24.2838 20.5842 24.2456H34.2327Z" fill="black"/>
<path opacity="0.2" d="M32.7442 24.2456V46.8242C32.7329 48.3238 31.52 49.5366 30.0205 49.5479H18.6493C18.1283 47.8401 17.8625 46.0647 17.8605 44.2791V27.1033C17.8247 25.5625 19.0435 24.2838 20.5842 24.2456H32.7442Z" fill="black"/>
<path opacity="0.1" d="M35.7209 16.5507V21.2391C35.4679 21.254 35.2298 21.2689 34.9767 21.2689C34.7237 21.2689 34.4856 21.254 34.2325 21.2391C33.7302 21.2058 33.2319 21.126 32.7442 21.001C29.7302 20.2872 27.2402 18.1735 26.0465 15.3154C25.8411 14.8354 25.6817 14.3371 25.5702 13.827H32.9972C34.4991 13.8327 35.7152 15.0488 35.7209 16.5507Z" fill="black"/>
<path opacity="0.2" d="M34.2327 18.0391V21.2391C33.7303 21.2058 33.232 21.1261 32.7443 21.001C29.7303 20.2872 27.2403 18.1735 26.0465 15.3154H31.5089C33.0108 15.3211 34.227 16.5372 34.2327 18.0391Z" fill="black"/>
<path opacity="0.2" d="M34.2327 18.0391V21.2391C33.7303 21.2058 33.232 21.1261 32.7443 21.001C29.7303 20.2872 27.2403 18.1735 26.0465 15.3154H31.5089C33.0108 15.3211 34.227 16.5372 34.2327 18.0391Z" fill="black"/>
<path opacity="0.2" d="M32.7442 18.0391V21.0009C29.7302 20.2872 27.2402 18.1734 26.0465 15.3154H30.0205C31.5224 15.3211 32.7385 16.5372 32.7442 18.0391Z" fill="black"/>
<path d="M2.72817 15.3154H30.016C31.5227 15.3154 32.7442 16.5368 32.7442 18.0435V45.3314C32.7442 46.8381 31.5227 48.0595 30.016 48.0595H2.72817C1.22143 48.0595 0 46.8381 0 45.3314V18.0435C0 16.5368 1.22146 15.3154 2.72817 15.3154Z" fill="url(#paint0_linear_720_81309)"/>
<path d="M23.552 25.7012H18.0971V40.5552H14.6218V25.7012H9.1922V22.8197H23.552V25.7012Z" fill="white"/>
</g>
<defs>
<linearGradient id="paint0_linear_720_81309" x1="5.68833" y1="13.1836" x2="27.0559" y2="50.1913" gradientUnits="userSpaceOnUse">
<stop stop-color="#5A62C3"/>
<stop offset="0.5" stop-color="#4D55BD"/>
<stop offset="1" stop-color="#3940AB"/>
</linearGradient>
<clipPath id="clip0_720_81309">
<rect width="64" height="59.5349" fill="white" transform="translate(0 1.92001)"/>
</clipPath>
</defs>
</svg>

<svg xmlns="http://www.w3.org/2000/svg" width="64" height="64" fill="none"><g clip-path="url(#a)"><path fill="#5059C9" d="M44.64 24.246h16.532A2.83 2.83 0 0 1 64 27.074V42.13c0 5.74-4.653 10.394-10.393 10.394h-.05c-5.74 0-10.393-4.652-10.394-10.392V25.724c0-.817.662-1.478 1.478-1.478M55.814 21.269a6.698 6.698 0 1 0 0-13.395 6.698 6.698 0 0 0 0 13.395"/><path fill="#7B83EB" d="M34.977 21.269c5.343 0 9.674-4.331 9.674-9.675 0-5.343-4.331-9.674-9.674-9.674s-9.675 4.331-9.675 9.674c0 5.344 4.332 9.675 9.675 9.675M47.877 24.246H20.589a2.8 2.8 0 0 0-2.729 2.862v17.174c-.215 9.261 7.112 16.946 16.373 17.173 9.26-.227 16.587-7.912 16.372-17.173V27.108a2.8 2.8 0 0 0-2.728-2.862"/><path fill="#000" d="M35.72 24.246v24.067a2.74 2.74 0 0 1-1.696 2.515 2.6 2.6 0 0 1-1.027.208H19.17a18 18 0 0 1-.52-1.488 18.1 18.1 0 0 1-.79-5.269V27.103a2.794 2.794 0 0 1 2.724-2.857z" opacity=".1"/><path fill="#000" d="M34.233 24.246V49.8c0 .353-.071.702-.209 1.027a2.74 2.74 0 0 1-2.515 1.697h-11.64a19 19 0 0 1-.699-1.489 15 15 0 0 1-.52-1.488 18.1 18.1 0 0 1-.79-5.269V27.103a2.794 2.794 0 0 1 2.724-2.857z" opacity=".2"/><path fill="#000" d="M34.233 24.246v22.578a2.744 2.744 0 0 1-2.724 2.724h-12.86a18.1 18.1 0 0 1-.789-5.269V27.103a2.794 2.794 0 0 1 2.724-2.857z" opacity=".2"/><path fill="#000" d="M32.744 24.246v22.578a2.744 2.744 0 0 1-2.724 2.724H18.65a18.1 18.1 0 0 1-.79-5.269V27.103a2.794 2.794 0 0 1 2.724-2.857z" opacity=".2"/><path fill="#000" d="M35.72 16.55v4.69c-.252.014-.49.029-.743.029s-.491-.015-.744-.03q-.756-.05-1.489-.238a9.67 9.67 0 0 1-6.697-5.686 8.3 8.3 0 0 1-.477-1.488h7.427a2.734 2.734 0 0 1 2.724 2.724" opacity=".1"/><path fill="#000" d="M34.233 18.04v3.2q-.756-.051-1.489-.239a9.68 9.68 0 0 1-6.697-5.686h5.462a2.734 2.734 0 0 1 2.724 2.724" opacity=".2"/><path fill="#000" d="M34.233 18.04v3.2q-.756-.051-1.489-.239a9.68 9.68 0 0 1-6.697-5.686h5.462a2.734 2.734 0 0 1 2.724 2.724" opacity=".2"/><path fill="#000" d="M32.744 18.04V21a9.67 9.67 0 0 1-6.697-5.685h3.973a2.734 2.734 0 0 1 2.724 2.724" opacity=".2"/><path fill="url(#b)" d="M2.728 15.315h27.288a2.73 2.73 0 0 1 2.728 2.729V45.33a2.73 2.73 0 0 1-2.728 2.728H2.728A2.73 2.73 0 0 1 0 45.332V18.044a2.73 2.73 0 0 1 2.728-2.729"/><path fill="#fff" d="M23.552 25.701h-5.455v14.854h-3.475V25.701h-5.43V22.82h14.36z"/></g><defs><linearGradient id="b" x1="5.688" x2="27.056" y1="13.184" y2="50.191" gradientUnits="userSpaceOnUse"><stop stop-color="#5A62C3"/><stop offset=".5" stop-color="#4D55BD"/><stop offset="1" stop-color="#3940AB"/></linearGradient><clipPath id="a"><path fill="#fff" d="M0 1.92h64v59.535H0z"/></clipPath></defs></svg>
